src/assets/filled/GridLock.svg

<?xml version="1.0" encoding="UTF-8"?>
<svg width="24" height="24" viewBox="0 0 24 24" xmlns="http://www.w3.org/2000/svg">
 <path d="m21.53 17.31v-0.16c0-1.93-0.98-2.9-2.9-2.9s-2.9 0.98-2.9 2.9v0.16c-1.05 0.26-1.47 0.98-1.47 2.42v0.74c0 1.85 0.69 2.53 2.53 2.53h3.68c1.85 0 2.53-0.69 2.53-2.53v-0.74c0-1.43-0.42-2.16-1.47-2.42zm-2.91-1.68c1.29 0 1.52 0.49 1.52 1.52v0.05h-3.04v-0.05c0-1.03 0.23-1.52 1.52-1.52z"/>
 <path d="m6.7468 2.0655c0.54986-0.07124 1.0032 0.38563 1.0032 0.94008v3.7944c0 0.55229-0.44772 1-1 1h-3.75c-0.55228 0-1.0082-0.44973-0.94133-0.99796 0.32766-2.6866 2.0132-4.39 4.6882-4.7366z"/>
 <path d="m20.93 7.8h-3.68c-0.5523 0-1-0.44772-1-1v-3.7938c0-0.55472 0.4541-1.0117 1.0042-0.93992 2.6336 0.34345 4.3103 2.0018 4.6758 4.6137 0.08 0.59-0.4 1.12-1 1.12z"/>
 <path d="m6.75 16.3c0.55228 0 1 0.4477 1 1v3.62c0 0.6-0.53 1.08-1.13 1-2.5691-0.3823-4.1899-2.0289-4.5463-4.6099-0.07621-0.552 0.38177-1.0101 0.93901-1.0101h3.7373z"/>
 <path d="m7.75 10.3c0-0.55228-0.44772-1-1-1h-3.75c-0.55228 0-1 0.44772-1 1v3.5c0 0.5523 0.44772 1 1 1h3.75c0.55228 0 1-0.4477 1-1v-3.5z"/>
 <path d="m14.75 10.3c0-0.55228-0.4477-1-1-1h-3.5c-0.55228 0-1 0.44772-1 1v3.5c0 0.5523 0.44772 1 1 1h3.5c0.55 0 1-0.45 1-1v-3.5z"/>
 <path d="m14.75 3c0-0.55229-0.4477-1-1-1h-3.5c-0.55228 0-1 0.44772-1 1v3.8c0 0.55229 0.44772 1 1 1h3.5c0.5523 0 1-0.44772 1-1v-3.8z"/>
</svg>

<svg width="24" height="24" viewBox="0 0 24 24"  xmlns="http://www.w3.org/2000/svg">
<path d="M21.53 17.31V17.15C21.53 15.22 20.55 14.25 18.63 14.25C16.71 14.25 15.73 15.23 15.73 17.15V17.31C14.68 17.57 14.26 18.29 14.26 19.73V20.47C14.26 22.32 14.95 23 16.79 23H20.47C22.32 23 23 22.31 23 20.47V19.73C23 18.3 22.58 17.57 21.53 17.31ZM18.62 15.63C19.91 15.63 20.14 16.12 20.14 17.15V17.2H17.1V17.15C17.1 16.12 17.33 15.63 18.62 15.63Z" />
<path d="M6.74683 2.06549C7.29669 1.99425 7.75 2.45112 7.75 3.00557V6.8C7.75 7.35229 7.30228 7.8 6.75 7.8H3C2.44772 7.8 1.9918 7.35027 2.05867 6.80204C2.38633 4.11548 4.07187 2.41205 6.74683 2.06549Z" />
<path d="M20.93 7.8H17.25C16.6977 7.8 16.25 7.35228 16.25 6.8V3.00625C16.25 2.45153 16.7041 1.99459 17.2542 2.06633C19.8878 2.40978 21.5645 4.0681 21.93 6.68C22.01 7.27 21.53 7.8 20.93 7.8Z" />
<path d="M6.75 16.2998C7.30228 16.2998 7.75 16.7475 7.75 17.2998V20.9198C7.75 21.5198 7.22 21.9998 6.62 21.9198C4.05088 21.5375 2.43008 19.8909 2.07373 17.3099C1.99752 16.7579 2.4555 16.2998 3.01274 16.2998H6.75Z" />
<path d="M7.75 10.2998C7.75 9.74752 7.30228 9.2998 6.75 9.2998H3C2.44772 9.2998 2 9.74752 2 10.2998V13.7998C2 14.3521 2.44772 14.7998 3 14.7998H6.75C7.30228 14.7998 7.75 14.3521 7.75 13.7998V10.2998Z" />
<path d="M14.75 10.2998C14.75 9.74752 14.3023 9.2998 13.75 9.2998H10.25C9.69772 9.2998 9.25 9.74752 9.25 10.2998V13.7998C9.25 14.3521 9.69772 14.7998 10.25 14.7998H13.75C14.3 14.7998 14.75 14.3498 14.75 13.7998V10.2998Z" />
<path d="M14.75 3C14.75 2.44771 14.3023 2 13.75 2H10.25C9.69772 2 9.25 2.44772 9.25 3V6.8C9.25 7.35229 9.69772 7.8 10.25 7.8H13.75C14.3023 7.8 14.75 7.35228 14.75 6.8V3Z" />
</svg>
